src/svg/11-flags/flag-uk.svg

<?xml version="1.0" encoding="UTF-8" standalone="no"?>
<svg width="640px" height="480px" viewBox="0 0 640 480" version="1.1" xmlns="http://www.w3.org/2000/svg" xmlns:xlink="http://www.w3.org/1999/xlink">
    <g stroke="none" stroke-width="1" fill="none" fill-rule="evenodd">
        <rect fill="#00247D" x="0.7477395" y="0.697527471" width="639.00156" height="479.002079"></rect>
        <path d="M266.249999,0 L372.750001,0 L372.750001,159.666667 L639,159.666667 L639,319.333333 L372.750001,319.333333 L372.750001,479 L266.249999,479 L266.249999,319.333333 L0,319.333333 L0,159.666667 L266.249999,159.666667 L266.249999,0 L266.249999,0 L266.249999,0 Z" fill="#FFFFFF"></path>
        <path d="M0,0 L71.4423722,0 L639,425.446171 L639,479 L567.557645,479 L0,53.5538284 L0,0 L0,0 L0,0 Z" fill="#FFFFFF"></path>
        <g transform="translate(319.500000, 239.500000) scale(-1, 1) translate(-319.500000, -239.500000) " fill="#FFFFFF">
            <path d="M0,0 L71.4423722,0 L639,425.446171 L639,479 L567.557645,479 L0,53.5538284 L0,0 L0,0 L0,0 Z"></path>
        </g>
        <path d="M287.55,0 L351.45,0 L351.45,191.6 L639,191.6 L639,287.4 L351.45,287.4 L351.45,479 L287.55,479 L287.55,287.4 L0,287.4 L0,191.6 L287.55,191.6 L287.55,0 L287.55,0 L287.55,0 Z" fill="#CC142B"></path>
        <path d="M0,0 L213.000001,159.666667 L165.37175,159.666667 L0,35.702552 L0,0 L0,0 L0,0 Z M639,0 L591.371764,0 L378.371751,159.666667 L425.999999,159.666667 L639,0 L639,0 L639,0 Z" fill="#CC142B"></path>
        <g transform="translate(319.500000, 399.166667) scale(-1, -1) translate(-319.500000, -399.166667) translate(0.000000, 319.333333)" fill="#CC142B">
            <path d="M0,0 L213.000001,159.666667 L165.37175,159.666667 L0,35.702552 L0,0 L0,0 L0,0 Z M639,0 L591.371764,0 L378.371751,159.666667 L425.999999,159.666667 L639,0 L639,0 L639,0 Z"></path>
        </g>
    </g>
</svg>

<svg xmlns="http://www.w3.org/2000/svg" width="640" height="480"><g fill="none" fill-rule="evenodd"><path fill="#00247D" d="M.748.698H639.75V479.7H.748z"/><path fill="#FFF" d="M266.25 0h106.5v159.667H639v159.666H372.75V479h-106.5V319.333H0V159.667h266.25V0z"/><path fill="#FFF" d="M0 0h71.442L639 425.446V479h-71.442L0 53.554V0z"/><path fill="#FFF" d="M639 0h-71.442L0 425.446V479h71.442L639 53.554V0z"/><path fill="#CC142B" d="M287.55 0h63.9v191.6H639v95.8H351.45V479h-63.9V287.4H0v-95.8h287.55V0z"/><path fill="#CC142B" d="M0 0l213 159.667h-47.628L0 35.703V0zm639 0h-47.628l-213 159.667H426L639 0zm0 479L426 319.333h47.628L639 443.297V479zM0 479h47.628l213-159.667H213L0 479z"/></g></svg>
